X: 2
T: March Of The Kings Of Laois
R: jig
M: 6/8
L: 1/8
K: Amix
[|e2c e2A|e2c e2A|f2d e2c|d2c B2A||e2c e2A|e2c e2a|f2a e>ad|c>ac B2A||c2A d>ef||e3 e>dc|B>gd B>GB|d>gd B>GB|A>BA A>BA|A>BA A>BA|||f2d a2d|f2d a2d|e2a e2c|e2a e2c||f2a a>fe|d>gd B>cd|c2A d>cB|e3 e>dc||B>gd B>GB|d>gd B>GB|A>BA A>BA|A>BA A>BA|]


